notifications/48/notification-power-disconnected.svg

<?xml version="1.0" encoding="UTF-8" standalone="no"?>
<!-- Created with Inkscape (http://www.inkscape.org/) -->

<svg
   xmlns:dc="http://purl.org/dc/elements/1.1/"
   xmlns:cc="http://creativecommons.org/ns#"
   xmlns:rdf="http://www.w3.org/1999/02/22-rdf-syntax-ns#"
   xmlns:svg="http://www.w3.org/2000/svg"
   xmlns="http://www.w3.org/2000/svg"
   xmlns:xlink="http://www.w3.org/1999/xlink"
   xmlns:inkscape="http://www.inkscape.org/namespaces/inkscape"
   version="1.0"
   width="48"
   height="48"
   id="svg3666">
  <metadata
     id="metadata26">
    <rdf:RDF>
      <cc:Work
         rdf:about="">
        <dc:format>image/svg+xml</dc:format>
        <dc:type
           rdf:resource="http://purl.org/dc/dcmitype/StillImage" />
      </cc:Work>
    </rdf:RDF>
  </metadata>
  <defs
     id="defs3668">
    <linearGradient
       id="linearGradient5578-737-461-426">
      <stop
         id="stop2467"
         style="stop-color:#dadada;stop-opacity:1"
         offset="0" />
      <stop
         id="stop2469"
         style="stop-color:#717171;stop-opacity:1"
         offset="1" />
    </linearGradient>
    <linearGradient
       x1="71.49469"
       y1="3.9985521"
       x2="71.49469"
       y2="44.000355"
       id="linearGradient2678"
       xlink:href="#linearGradient5578-737-461-426"
       gradientUnits="userSpaceOnUse"
       gradientTransform="translate(-46.494692,0)" />
    <linearGradient
       x1="23.794767"
       y1="23.601643"
       x2="23.794767"
       y2="42.037098"
       id="linearGradient3466"
       xlink:href="#linearGradient3452"
       gradientUnits="userSpaceOnUse" />
    <linearGradient
       id="linearGradient3452">
      <stop
         id="stop3454"
         style="stop-color:#ffffff;stop-opacity:1"
         offset="0" />
      <stop
         id="stop3456"
         style="stop-color:#ffffff;stop-opacity:0"
         offset="1" />
    </linearGradient>
    <linearGradient
       x1="23.794767"
       y1="4"
       x2="23.794767"
       y2="23.925999"
       id="linearGradient3458"
       xlink:href="#linearGradient3452"
       gradientUnits="userSpaceOnUse" />
    <linearGradient
       id="linearGradient3680">
      <stop
         id="stop3682"
         style="stop-color:#e86666;stop-opacity:1"
         offset="0" />
      <stop
         id="stop3684"
         style="stop-color:#ab2a2a;stop-opacity:1"
         offset="1" />
    </linearGradient>
    <linearGradient
       x1="11.192374"
       y1="3"
       x2="11.192374"
       y2="22.000153"
       id="linearGradient3209"
       xlink:href="#linearGradient3680"
       gradientUnits="userSpaceOnUse"
       gradientTransform="translate(25.999999,26)" />
  </defs>
  <g
     id="layer1">
    <path
       d="M 31.5,4 24.5,18 37,18 18.822343,44 23.5,24.000001 l -12.5,0 L 18,4 l 13.5,0 0,0 z"
       inkscape:connector-curvature="0"
       id="path2911"
       style="opacity:0.8;fill:url(#linearGradient2678);fill-opacity:1;fill-rule:nonzero;stroke:none;stroke-width:0.2769511;marker:none;visibility:visible;display:inline;overflow:visible;enable-background:accumulate" />
    <path
       d="M 19.959502,41.536155 24.021198,24.115961"
       inkscape:connector-curvature="0"
       id="path3464"
       style="opacity:0.2;fill:none;stroke:url(#linearGradient3466);stroke-width:1;stroke-linecap:butt;stroke-linejoin:miter;stroke-miterlimit:4;stroke-opacity:1;stroke-dasharray:none;stroke-dashoffset:0;marker:none;visibility:visible;display:inline;overflow:visible;enable-background:accumulate" />
    <path
       d="m 24.49485,18.5 11.510136,0"
       inkscape:connector-curvature="0"
       id="path3462"
       style="opacity:0.2;fill:none;stroke:#ffffff;stroke-width:1;stroke-linecap:butt;stroke-linejoin:miter;stroke-miterlimit:4;stroke-opacity:1;stroke-dasharray:none;stroke-dashoffset:0;marker:none;visibility:visible;display:inline;overflow:visible;enable-background:accumulate" />
    <path
       d="M 11.584548,23.835039 18.358577,4.5 l 12.335935,0"
       inkscape:connector-curvature="0"
       id="path2680"
       style="opacity:0.2;fill:none;stroke:url(#linearGradient3458);stroke-width:1;stroke-linecap:butt;stroke-linejoin:miter;stroke-miterlimit:4;stroke-opacity:1;stroke-dasharray:none;stroke-dashoffset:0;marker:none;visibility:visible;display:inline;overflow:visible;enable-background:accumulate" />
    <path
       d="M 47.5,43.799811 41.998652,38.496726 47.292241,32.941176 43.476296,29.5 38.028459,34.794117 32.470191,29.5 28.499999,33.067749 34.058267,38.474098 28.499999,43.794117 32.470191,47.5 38.022009,41.941175 43.586728,47.5 47.5,43.799811 z"
       inkscape:connector-curvature="0"
       id="text1314"
       style="font-size:59.90107727px;font-style:normal;font-variant:normal;font-weight:bold;font-stretch:normal;text-align:start;line-height:125%;writing-mode:lr-tb;text-anchor:start;fill:url(#linearGradient3209);fill-opacity:1;stroke:none;font-family:Bitstream Vera Sans" />
    <path
       d="m 28.819203,33.381941 3.621943,-3.178971 5.602286,5.2896 5.445943,-5.315657 3.465601,3.126857 m -12.559545,5.524115 -5.576228,5.315657 m 12.820115,-5.315657 5.445942,5.341714"
       inkscape:connector-curvature="0"
       id="path3215"
       style="opacity:0.2;fill:none;stroke:#ffffff;stroke-width:1px;stroke-linecap:butt;stroke-linejoin:miter;stroke-opacity:1" />
  </g>
</svg>

<?xml version="1.0" encoding="UTF-8" standalone="no"?>
<!-- Created with Inkscape (http://www.inkscape.org/) -->
<svg
   xmlns:svg="http://www.w3.org/2000/svg"
   xmlns="http://www.w3.org/2000/svg"
   xmlns:xlink="http://www.w3.org/1999/xlink"
   version="1.0"
   width="48"
   height="48"
   id="svg3666">
  <defs
     id="defs3668">
    <linearGradient
       id="linearGradient5578-737-461-426">
      <stop
         id="stop2467"
         style="stop-color:#dadada;stop-opacity:1"
         offset="0" />
      <stop
         id="stop2469"
         style="stop-color:#717171;stop-opacity:1"
         offset="1" />
    </linearGradient>
    <linearGradient
       x1="71.49469"
       y1="3.9985521"
       x2="71.49469"
       y2="44.000355"
       id="linearGradient2678"
       xlink:href="#linearGradient5578-737-461-426"
       gradientUnits="userSpaceOnUse"
       gradientTransform="translate(-46.494692,0)" />
    <linearGradient
       x1="23.794767"
       y1="23.601643"
       x2="23.794767"
       y2="42.037098"
       id="linearGradient3466"
       xlink:href="#linearGradient3452"
       gradientUnits="userSpaceOnUse" />
    <linearGradient
       id="linearGradient3452">
      <stop
         id="stop3454"
         style="stop-color:#ffffff;stop-opacity:1"
         offset="0" />
      <stop
         id="stop3456"
         style="stop-color:#ffffff;stop-opacity:0"
         offset="1" />
    </linearGradient>
    <linearGradient
       x1="23.794767"
       y1="4"
       x2="23.794767"
       y2="23.925999"
       id="linearGradient3458"
       xlink:href="#linearGradient3452"
       gradientUnits="userSpaceOnUse" />
    <linearGradient
       id="linearGradient3680">
      <stop
         id="stop3682"
         style="stop-color:#e86666;stop-opacity:1"
         offset="0" />
      <stop
         id="stop3684"
         style="stop-color:#ab2a2a;stop-opacity:1"
         offset="1" />
    </linearGradient>
    <linearGradient
       x1="11.192374"
       y1="3"
       x2="11.192374"
       y2="22.000153"
       id="linearGradient3209"
       xlink:href="#linearGradient3680"
       gradientUnits="userSpaceOnUse"
       gradientTransform="translate(25.999999,26)" />
  </defs>
  <g
     id="layer1">
    <path
       d="M 31.5,4 L 24.5,18 L 37,18 L 18.822343,44 L 23.5,24.000001 L 11,24.000001 L 18,4 L 31.5,4 L 31.5,4 z"
       id="path2911"
       style="opacity:0.8;fill:url(#linearGradient2678);fill-opacity:1;fill-rule:nonzero;stroke:none;stroke-width:0.2769511;stroke-linecap:butt;stroke-linejoin:miter;marker:none;marker-start:none;marker-mid:none;marker-end:none;stroke-miterlimit:4;stroke-dasharray:none;stroke-dashoffset:0;stroke-opacity:1;visibility:visible;display:inline;overflow:visible;enable-background:accumulate" />
    <path
       d="M 19.959502,41.536155 L 24.021198,24.115961"
       id="path3464"
       style="opacity:0.2;fill:none;fill-opacity:1;fill-rule:nonzero;stroke:url(#linearGradient3466);stroke-width:1;stroke-linecap:butt;stroke-linejoin:miter;marker:none;marker-start:none;marker-mid:none;marker-end:none;stroke-miterlimit:4;stroke-dasharray:none;stroke-dashoffset:0;stroke-opacity:1;visibility:visible;display:inline;overflow:visible;enable-background:accumulate" />
    <path
       d="M 24.49485,18.5 L 36.004986,18.5"
       id="path3462"
       style="opacity:0.2;fill:none;fill-opacity:1;fill-rule:nonzero;stroke:#ffffff;stroke-width:1;stroke-linecap:butt;stroke-linejoin:miter;marker:none;marker-start:none;marker-mid:none;marker-end:none;stroke-miterlimit:4;stroke-dasharray:none;stroke-dashoffset:0;stroke-opacity:1;visibility:visible;display:inline;overflow:visible;enable-background:accumulate" />
    <path
       d="M 11.584548,23.835039 L 18.358577,4.5 L 30.694512,4.5"
       id="path2680"
       style="opacity:0.2;fill:none;fill-opacity:1;fill-rule:nonzero;stroke:url(#linearGradient3458);stroke-width:1;stroke-linecap:butt;stroke-linejoin:miter;marker:none;marker-start:none;marker-mid:none;marker-end:none;stroke-miterlimit:4;stroke-dasharray:none;stroke-dashoffset:0;stroke-opacity:1;visibility:visible;display:inline;overflow:visible;enable-background:accumulate" />
    <path
       d="M 47.5,43.799811 L 41.998652,38.496726 L 47.292241,32.941176 L 43.476296,29.5 L 38.028459,34.794117 L 32.470191,29.5 L 28.499999,33.067749 L 34.058267,38.474098 L 28.499999,43.794117 L 32.470191,47.5 L 38.022009,41.941175 L 43.586728,47.5 L 47.5,43.799811 z"
       id="text1314"
       style="font-size:59.90107727px;font-style:normal;font-variant:normal;font-weight:bold;font-stretch:normal;text-align:start;line-height:125%;writing-mode:lr-tb;text-anchor:start;fill:url(#linearGradient3209);fill-opacity:1;stroke:none;stroke-width:1;stroke-linecap:butt;stroke-linejoin:round;stroke-miterlimit:4;stroke-dasharray:none;stroke-opacity:1;font-family:Bitstream Vera Sans" />
    <path
       d="M 28.819203,33.381941 L 32.441146,30.20297 L 38.043432,35.49257 L 43.489375,30.176913 L 46.954976,33.30377 M 34.395431,38.827885 L 28.819203,44.143542 M 41.639318,38.827885 L 47.08526,44.169599"
       id="path3215"
       style="opacity:0.2;fill:none;fill-rule:evenodd;stroke:#ffffff;stroke-width:1px;stroke-linecap:butt;stroke-linejoin:miter;stroke-opacity:1" />
  </g>
</svg>
